source/img/decor/vkontakte-icon.svg

<svg width="31" height="16" viewBox="0 0 31 16" fill="none" xmlns="http://www.w3.org/2000/svg">
<path d="M23.9461 15.7775C23.2083 15.761 22.4891 15.5431 21.8661 15.1475C21.2157 14.7079 20.6184 14.1945 20.0861 13.6175C19.6461 13.1775 18.9161 12.4375 18.6361 12.4375C18.3561 12.4375 18.1561 13.3575 18.1661 14.0075C18.1703 14.4562 18.0021 14.8894 17.6961 15.2175C17.3481 15.5018 16.9234 15.6758 16.4761 15.7175H14.5561C11.7965 15.6568 9.15414 14.59 7.12606 12.7175C3.44606 9.34753 0.286063 2.90753 0.156063 2.62753C0.0320633 2.39361 -0.0198655 2.12821 0.00683068 1.86481C0.0335268 1.6014 0.137651 1.35181 0.306063 1.14753C0.687199 0.829675 1.16985 0.659328 1.66606 0.667532H5.74606H5.86606C6.20364 0.716784 6.52722 0.835995 6.81606 1.01753C7.08788 1.1998 7.30552 1.45198 7.44606 1.74753C7.87724 2.6706 8.37175 3.56273 8.92606 4.41753C10.2361 6.41753 10.8161 6.87753 11.0261 6.97753C11.2597 6.03979 11.324 5.06788 11.2161 4.10753C11.2511 3.67014 11.179 3.2308 11.0061 2.82753C10.7865 2.65191 10.5169 2.55038 10.2361 2.53753L9.50606 1.84753C9.36606 1.18753 10.0961 0.617532 10.6061 0.397532C11.6238 0.0786297 12.6916 -0.0501836 13.7561 0.017532H14.4661C15.1881 -0.00127074 15.9099 0.0658674 16.6161 0.217532C18.3161 0.577532 18.2561 1.94753 18.1861 3.52753C18.1861 3.98753 18.1361 4.52753 18.1361 5.14753C18.1361 5.29753 18.1361 5.45753 18.1361 5.62753C18.0967 6.06289 18.1271 6.50174 18.2261 6.92753C19.0586 6.23108 19.7597 5.39116 20.2961 4.44753C20.875 3.55527 21.3832 2.61908 21.8161 1.64753C21.9479 1.34025 22.1739 1.08272 22.4614 0.912012C22.7489 0.741299 23.0832 0.666204 23.4161 0.697532H27.6961C27.8224 0.685471 27.9497 0.685471 28.0761 0.697532C29.0761 0.697532 29.6661 0.987532 29.9061 1.54753C30.1461 2.10753 30.0761 3.20753 27.5461 6.15753L26.5461 7.28753C26.0616 7.75797 25.6443 8.29301 25.3061 8.87753C25.6848 9.30811 26.1147 9.69093 26.5861 10.0175C27.7353 10.8835 28.7468 11.9186 29.5861 13.0875C29.7829 13.3148 29.9117 13.593 29.9576 13.8901C30.0036 14.1873 29.965 14.4914 29.8461 14.7675C29.6365 15.0734 29.3561 15.3241 29.0288 15.4982C28.7014 15.6723 28.3368 15.7647 27.9661 15.7675L24.1761 15.8175L23.9461 15.7775ZM18.6361 10.9375C19.5361 10.9375 20.3161 11.7275 21.1461 12.5575C21.5944 13.0471 22.0977 13.4833 22.6461 13.8575C23.0607 14.1333 23.5481 14.2795 24.0461 14.2775H24.1461L27.9461 14.2275C28.1335 14.2168 28.317 14.1692 28.4861 14.0875L28.3861 13.9275C27.6291 12.8959 26.7263 11.9797 25.7061 11.2075C24.5161 10.2075 23.9061 9.73753 23.8361 8.96753C23.7661 8.19753 24.3261 7.52753 25.4461 6.25753L26.4461 5.14753C27.2903 4.28639 27.9834 3.28908 28.4961 2.19753C28.2729 2.1843 28.0492 2.1843 27.8261 2.19753H23.4561C23.377 2.17986 23.2951 2.17986 23.2161 2.19753C22.7532 3.25898 22.2012 4.27929 21.5661 5.24753C19.6761 8.06753 18.7861 8.44753 18.1561 8.44753C17.9607 8.44753 17.7684 8.39945 17.5961 8.30753C16.5961 7.73753 16.5961 6.46753 16.6561 5.54753C16.6561 5.39753 16.6561 5.24753 16.6561 5.11753C16.6561 4.46753 16.6561 3.90753 16.7061 3.42753C16.7861 1.74753 16.7061 1.73753 16.3261 1.64753C15.7138 1.52655 15.09 1.4729 14.4661 1.48753H13.7761C13.1411 1.47441 12.5061 1.50784 11.8761 1.58753C11.9715 1.65784 12.0558 1.74212 12.1261 1.83753C12.5385 2.48787 12.7442 3.24794 12.7161 4.01753C12.8461 5.66753 12.7761 7.81753 11.7161 8.33753C11.5284 8.42537 11.3233 8.4698 11.1161 8.46753C10.1861 8.46753 9.26606 7.58753 7.69606 5.20753C7.09358 4.29624 6.5556 3.34392 6.08606 2.35753L6.00606 2.25753C5.90508 2.20606 5.79736 2.16903 5.68606 2.14753H1.68606H1.61606C2.20606 3.36753 5.00606 8.76753 8.13606 11.5975C9.89364 13.2122 12.1708 14.1451 14.5561 14.2275H16.4061C16.5004 14.2074 16.5914 14.1737 16.6761 14.1275C16.6761 14.1275 16.6761 14.1275 16.6761 14.0375C16.6761 13.7675 16.6761 11.4375 18.2561 11.0375C18.3784 10.9894 18.5059 10.9558 18.6361 10.9375Z" fill="#192144"/>
</svg>

<svg width="31" height="16" fill="none" xmlns="http://www.w3.org/2000/svg"><path d="M23.95 15.78a4.05 4.05 0 01-2.08-.63c-.65-.44-1.25-.96-1.78-1.53-.44-.44-1.17-1.18-1.45-1.18s-.48.92-.47 1.57c0 .45-.17.88-.47 1.2-.35.3-.78.47-1.22.5h-1.92a11.32 11.32 0 01-7.43-3C3.45 9.36.29 2.92.16 2.64A1.34 1.34 0 01.3 1.15c.38-.32.86-.5 1.36-.48h4.2c.33.05.66.17.95.35.27.18.49.43.63.73.43.92.92 1.81 1.48 2.67 1.3 2 1.89 2.46 2.1 2.56.23-.94.3-1.91.19-2.87A2.7 2.7 0 0011 2.83a1.33 1.33 0 00-.77-.3l-.73-.68C9.37 1.19 10.1.62 10.6.4a8.69 8.69 0 013.15-.38h.7c.73-.02 1.45.05 2.16.2 1.7.36 1.64 1.73 1.57 3.3 0 .47-.05 1-.05 1.63v.48c-.04.43-.01.87.09 1.3a9.1 9.1 0 002.07-2.48 20.4 20.4 0 001.52-2.8 1.58 1.58 0 011.6-.95h4.28a2 2 0 01.38 0c1 0 1.59.29 1.83.85s.17 1.66-2.36 4.6l-1 1.14c-.49.47-.9 1-1.24 1.59.37.43.8.81 1.28 1.14 1.15.86 2.16 1.9 3 3.07a1.6 1.6 0 01.26 1.68 2.3 2.3 0 01-1.88 1l-3.8.05-.22-.04zm-5.31-4.84c.9 0 1.68.79 2.5 1.62.45.49.96.92 1.5 1.3.42.27.9.42 1.4.42h.1l3.8-.05c.2-.01.38-.06.55-.14l-.1-.16a13.22 13.22 0 00-2.68-2.72c-1.2-1-1.8-1.47-1.87-2.24-.07-.77.49-1.44 1.6-2.71l1-1.11c.85-.86 1.54-1.86 2.06-2.95a5.66 5.66 0 00-.67 0h-4.37a.55.55 0 00-.24 0 20.5 20.5 0 01-1.65 3.05c-1.9 2.82-2.78 3.2-3.41 3.2-.2 0-.4-.05-.56-.14-1-.57-1-1.84-.94-2.76v-.43c0-.65 0-1.21.05-1.7.08-1.67 0-1.68-.38-1.77a8.56 8.56 0 00-1.86-.16h-.7a13 13 0 00-1.9.1c.1.07.19.15.26.25.4.65.61 1.4.59 2.18.13 1.65.06 3.8-1 4.32-.2.09-.4.13-.6.13-.93 0-1.85-.88-3.42-3.26-.6-.91-1.14-1.87-1.61-2.85L6 2.26c-.1-.05-.21-.1-.32-.11H1.62C2.2 3.37 5 8.77 8.14 11.6a10 10 0 006.42 2.63h1.85a1 1 0 00.27-.1v-.1c0-.26 0-2.6 1.58-3l.38-.1z" fill="#192144"/></svg>
